SVG/plane.svg

<?xml version="1.0" encoding="utf-8"?>
<!-- Generated by IcoMoon.io -->
<!DOCTYPE svg PUBLIC "-//W3C//DTD SVG 1.1//EN" "http://www.w3.org/Graphics/SVG/1.1/DTD/svg11.dtd">
<svg version="1.1" xmlns="http://www.w3.org/2000/svg" xmlns:xlink="http://www.w3.org/1999/xlink" width="11" height="14" viewBox="0 0 11 14">
<path fill="#444444" d="M10.75 1.25q0.344 0.406 0.094 1.156t-0.844 1.344l-1.258 1.258 1.25 5.437q0.039 0.148-0.094 0.258l-1 0.75q-0.055 0.047-0.148 0.047-0.031 0-0.055-0.008-0.117-0.023-0.164-0.125l-2.18-3.969-2.023 2.023 0.414 1.516q0.039 0.133-0.062 0.242l-0.75 0.75q-0.070 0.070-0.18 0.070h-0.016q-0.117-0.016-0.187-0.102l-1.477-1.969-1.969-1.477q-0.086-0.055-0.102-0.18-0.008-0.102 0.070-0.195l0.75-0.758q0.070-0.070 0.18-0.070 0.047 0 0.062 0.008l1.516 0.414 2.023-2.023-3.969-2.18q-0.109-0.062-0.133-0.187-0.016-0.125 0.070-0.211l1-1q0.109-0.102 0.234-0.062l5.195 1.242 1.25-1.25q0.594-0.594 1.344-0.844t1.156 0.094z"></path>
</svg>

<svg xmlns="http://www.w3.org/2000/svg" viewBox="0 0 11 14"><path d="M10.75 1.25q.344.406.094 1.156T10 3.75L8.742 5.008l1.25 5.437q.04.148-.094.258l-1 .75q-.055.047-.148.047-.03 0-.055-.008-.117-.023-.164-.125l-2.18-3.97L4.33 9.422l.414 1.517q.04.133-.062.242l-.75.75q-.07.07-.18.07h-.016q-.117-.017-.187-.103L2.07 9.927.1 8.452q-.085-.054-.1-.18-.01-.1.07-.194l.75-.758q.07-.07.18-.07.046 0 .06.008l1.517.414L4.6 5.647.63 3.467Q.523 3.405.5 3.28q-.016-.125.07-.21l1-1q.11-.103.234-.063L6.997 3.25 8.247 2q.594-.595 1.344-.845t1.157.094z" /></svg>
